X:251
T: VOR ALLEN LANDEN HOCHGEEHRT
N: F0439
O: Europa, Mitteleuropa, Deutschland
R: Vaterlands -, Heimat - Lied, nationalistisch
M: 4/4
L: 1/16
K: Eb
B4 | e6B2B2A2G2F2 | E4E4E4
G4 | F6B2d2c2B2=A2 | B8z4
B2A2 | G4G4G6B2 | B2A2A2G2A4
A2G2 | F4F4F6A2 | A2G2G2F2G4
B4 | e6B2A2G2F2E2 | B8
d8 | e6c2B2A2G2F2 | E4G3GE4

@@@ Tune index: 5682
